X: 47
T: Westphalia Waltz
M: 3/4
L: 1/8
K: G
D EF |\
"G"G4 A2 | B4 e2 | d6- | "(D7)"d3 D EF |\
"G"G4 A2 | "E"B4 c2 | "Am"A4- AB | A4 G2 |
"D"F4 G2 | "(Am)"A4 g2 | "D"f4- fg | f4 e2 "^I"|\
d3 ^c de |[1"D7"d2 ^c2 =c2 | "G"B4- Bc | B3 :|\
[2 "D7"d2 F2 A2 | "G"G6 | G2 B2 d2 ||
|: \
"G" .g4- g2 | "D/F#".f4- f2 |"Em"e2 f2 g2 | B6 |\
"G"(3BcB A2 G2 | (3BcB A2 G2 |"Am"c3 B cd | c6 |
"Am" .e4- e2 | "/G".e4- e2 | "/F#"e2 f2 g2 | "D"f4 e2 "^I"|\
d3 ^c de |[1 d2 ^c2 =c2 | "G"B4- Bc | B4 d2 :|\
[2 "D7"d2 F2 A2 | "G"G6 | G3 |]

